src/pos-icons/steering-off.svg

<svg height="24" viewBox="0 0 24 24" width="24" xmlns="http://www.w3.org/2000/svg"><path d="m2 5.27 1.28-1.27 16.72 16.72-1.27 1.28-1.48-1.5c-1.55 1-3.3 1.5-5.25 1.5-2.75 0-5.1-1-7.05-2.95s-2.95-4.3-2.95-7.05c0-1.95.5-3.7 1.5-5.25zm11 14.65c1-.12 1.93-.42 2.78-.87l-2.28-2.27c-.16.06-.34.1-.5.14zm-8.92-8.92h2.92l.37-.37-2.41-2.4c-.46.85-.75 1.77-.88 2.77m15.84 2h-3c-.12.54-.32 1.05-.59 1.5l-6.42-6.41.09-.09h4l3 3h2.92c-.25-1.95-1.13-3.62-2.65-5-1.51-1.34-3.27-2-5.27-2-1.74 0-3.29.5-4.66 1.5l-1.43-1.41c1.75-1.38 3.78-2.09 6.09-2.09 2.75 0 5.1 1 7.05 2.95s2.95 4.3 2.95 7.05c0 2.31-.71 4.34-2.09 6.09l-1.41-1.42c.78-1.08 1.26-2.31 1.42-3.67m-8.92 6.92v-3c-1-.22-1.84-.68-2.54-1.38s-1.16-1.54-1.38-2.54h-3c.22 1.77.97 3.3 2.27 4.6s2.85 2.07 4.65 2.32z"/></svg>

<?xml version="1.0" encoding="UTF-8"?><!DOCTYPE svg PUBLIC "-//W3C//DTD SVG 1.1//EN" "http://www.w3.org/Graphics/SVG/1.1/DTD/svg11.dtd"><svg xmlns="http://www.w3.org/2000/svg" xmlns:xlink="http://www.w3.org/1999/xlink" version="1.1" id="mdi-steering-off" width="24" height="24" viewBox="0 0 24 24"><path d="M2,5.27L3.28,4L20,20.72L18.73,22L17.25,20.5C15.7,21.5 13.95,22 12,22C9.25,22 6.9,21 4.95,19.05C3,17.1 2,14.75 2,12C2,10.05 2.5,8.3 3.5,6.75L2,5.27M13,19.92C14,19.8 14.93,19.5 15.78,19.05L13.5,16.78C13.34,16.84 13.16,16.88 13,16.92V19.92M4.08,11H7L7.37,10.63L4.96,8.23C4.5,9.08 4.21,10 4.08,11M19.92,13H16.92C16.8,13.54 16.6,14.05 16.33,14.5L9.91,8.09L10,8H14L17,11H19.92C19.67,9.05 18.79,7.38 17.27,6C15.76,4.66 14,4 12,4C10.26,4 8.71,4.5 7.34,5.5L5.91,4.09C7.66,2.71 9.69,2 12,2C14.75,2 17.1,3 19.05,4.95C21,6.9 22,9.25 22,12C22,14.31 21.29,16.34 19.91,18.09L18.5,16.67C19.28,15.59 19.76,14.36 19.92,13M11,19.92V16.92C10,16.7 9.16,16.24 8.46,15.54C7.76,14.84 7.3,14 7.08,13H4.08C4.3,14.77 5.05,16.3 6.35,17.6C7.65,18.9 9.2,19.67 11,19.92Z" /></svg>
